; G-Code generated by Simplify3D(R) Version 4.1.2
; Feb 14, 2026 at 10:07:41 AM
; Settings Summary
;   processName,Process1
;   applyToModels,M4_Node_4d
;   profileName,Robo3D R2 20 infill, double layers (modified)
;   profileVersion,2023-10-28 14:58:02
;   baseProfile,Robo3D R2 (modified)
;   printMaterial,PLA
;   printQuality,Medium
;   printExtruders,
;   extruderName,Primary Extruder
;   extruderToolheadNumber,0
;   extruderDiameter,0.4
;   extruderAutoWidth,0
;   extruderWidth,0.4
;   extrusionMultiplier,1
;   extruderUseRetract,1
;   extruderRetractionDistance,2
;   extruderExtraRestartDistance,0
;   extruderRetractionZLift,0
;   extruderRetractionSpeed,1800
;   extruderUseCoasting,0
;   extruderCoastingDistance,0.2
;   extruderUseWipe,1
;   extruderWipeDistance,5
;   primaryExtruder,0
;   layerHeight,0.15
;   topSolidLayers,6
;   bottomSolidLayers,6
;   perimeterOutlines,5
;   printPerimetersInsideOut,1
;   startPointOption,2
;   startPointOriginX,0
;   startPointOriginY,0
;   sequentialIslands,0
;   spiralVaseMode,0
;   firstLayerHeightPercentage,120
;   firstLayerWidthPercentage,150
;   firstLayerUnderspeed,0.4
;   useRaft,0
;   raftExtruder,0
;   raftTopLayers,3
;   raftBaseLayers,2
;   raftOffset,3
;   raftSeparationDistance,0.14
;   raftTopInfill,100
;   aboveRaftSpeedMultiplier,0.3
;   useSkirt,0
;   skirtExtruder,0
;   skirtLayers,1
;   skirtOutlines,2
;   skirtOffset,4
;   usePrimePillar,0
;   primePillarExtruder,999
;   primePillarWidth,12
;   primePillarLocation,7
;   primePillarSpeedMultiplier,1
;   useOozeShield,0
;   oozeShieldExtruder,999
;   oozeShieldOffset,2
;   oozeShieldOutlines,1
;   oozeShieldSidewallShape,1
;   oozeShieldSidewallAngle,30
;   oozeShieldSpeedMultiplier,1
;   infillExtruder,0
;   internalInfillPattern,Rectilinear
;   externalInfillPattern,Rectilinear
;   infillPercentage,50
;   outlineOverlapPercentage,40
;   infillExtrusionWidthPercentage,130
;   minInfillLength,5
;   infillLayerInterval,1
;   internalInfillAngles,45,-45
;   overlapInternalInfillAngles,0
;   externalInfillAngles,45,-45
;   generateSupport,0
;   supportExtruder,0
;   supportInfillPercentage,30
;   supportExtraInflation,0
;   supportBaseLayers,0
;   denseSupportExtruder,0
;   denseSupportLayers,0
;   denseSupportInfillPercentage,70
;   supportLayerInterval,1
;   supportHorizontalPartOffset,0.3
;   supportUpperSeparationLayers,1
;   supportLowerSeparationLayers,1
;   supportType,0
;   supportGridSpacing,4
;   maxOverhangAngle,45
;   supportAngles,0
;   temperatureName,Primary Extruder,Heated Bed
;   temperatureNumber,0,0
;   temperatureSetpointCount,1,1
;   temperatureSetpointLayers,1,1
;   temperatureSetpointTemperatures,190,70
;   temperatureStabilizeAtStartup,1,1
;   temperatureHeatedBed,0,1
;   fanLayers,1,2
;   fanSpeeds,0,100
;   blipFanToFullPower,1
;   adjustSpeedForCooling,1
;   minSpeedLayerTime,15
;   minCoolingSpeedSlowdown,20
;   increaseFanForCooling,0
;   minFanLayerTime,45
;   maxCoolingFanSpeed,100
;   increaseFanForBridging,0
;   bridgingFanSpeed,100
;   use5D,1
;   relativeEdistances,0
;   allowEaxisZeroing,1
;   independentExtruderAxes,0
;   includeM10123,0
;   stickySupport,1
;   applyToolheadOffsets,0
;   gcodeXoffset,0
;   gcodeYoffset,0
;   gcodeZoffset,0
;   overrideMachineDefinition,1
;   machineTypeOverride,0
;   strokeXoverride,203
;   strokeYoverride,203
;   strokeZoverride,254
;   originOffsetXoverride,0
;   originOffsetYoverride,0
;   originOffsetZoverride,0
;   homeXdirOverride,-1
;   homeYdirOverride,-1
;   homeZdirOverride,-1
;   flipXoverride,1
;   flipYoverride,-1
;   flipZoverride,1
;   toolheadOffsets,0,0|0,0|0,0|0,0|0,0|0,0
;   overrideFirmwareConfiguration,1
;   firmwareTypeOverride,RepRap (Marlin/Repetier/Sprinter)
;   GPXconfigOverride,r2
;   baudRateOverride,250000
;   overridePrinterModels,1
;   printerModelsOverride
;   startingGcode,G28 ; home all axes,G1 Z5 F1000 ; lower bed by 5mm,G29 ; run auto bed leveling routine,G1 X1 Y1 F7200 ; move to starting position,G1 Z0.3 F1000 ; set priming height,G92 E0 ; reset extrusion distance,G1 X100 E10.0 F500 ; prime extruder,G1 X120 F6000 ; quick wipe,G92 E0 ; reset extrusion distance
;   layerChangeGcode,
;   retractionGcode,
;   toolChangeGcode,
;   endingGcode,G28 X0 Y0 ; home x and y axes,M106 S0 ; turn off cooling fan,M104 S0 ; turn off extruder,M140 S0 ; turn off bed,M84 ; disable motors
;   exportFileFormat,gcode
;   celebration,0
;   celebrationSong,Random Song
;   postProcessing,
;   defaultSpeed,3000
;   outlineUnderspeed,0.5
;   solidInfillUnderspeed,0.6
;   supportUnderspeed,0.8
;   rapidXYspeed,4800
;   rapidZspeed,1000
;   minBridgingArea,50
;   bridgingExtraInflation,0
;   bridgingExtrusionMultiplier,1
;   bridgingSpeedMultiplier,1
;   useFixedBridgingAngle,0
;   fixedBridgingAngle,0
;   applyBridgingToPerimeters,0
;   filamentDiameters,1.75|1.75|1.75|1.75|1.75|1.75
;   filamentPricesPerKg,46|46|46|46|46|46
;   filamentDensities,1.25|1.25|1.25|1.25|1.25|1.25
;   useMinPrintHeight,0
;   minPrintHeight,0
;   useMaxPrintHeight,0
;   maxPrintHeight,0
;   useDiaphragm,0
;   diaphragmLayerInterval,20
;   robustSlicing,1
;   mergeAllIntoSolid,0
;   onlyRetractWhenCrossingOutline,1
;   retractBetweenLayers,1
;   useRetractionMinTravel,0
;   retractionMinTravel,3
;   retractWhileWiping,0
;   onlyWipeOutlines,1
;   avoidCrossingOutline,0
;   maxMovementDetourFactor,3
;   toolChangeRetractionDistance,12
;   toolChangeExtraRestartDistance,-0.5
;   toolChangeRetractionSpeed,600
;   externalThinWallType,0
;   internalThinWallType,2
;   thinWallAllowedOverlapPercentage,10
;   singleExtrusionMinLength,1
;   singleExtrusionMinPrintingWidthPercentage,50
;   singleExtrusionMaxPrintingWidthPercentage,200
;   singleExtrusionEndpointExtension,0.2
;   horizontalSizeCompensation,0
G90
M82
M106 S0
M140 S70
M190 S70
M104 S190 T0
M109 S190 T0
G28 ; home all axes
G1 Z5 F1000 ; lower bed by 5mm
G29 ; run auto bed leveling routine
G1 X1 Y1 F7200 ; move to starting position
G1 Z0.3 F1000 ; set priming height
G92 E0 ; reset extrusion distance
G1 X100 E10.0 F500 ; prime extruder
G1 X120 F6000 ; quick wipe
G92 E0 ; reset extrusion distance
; process Process1
; layer 1, Z = 0.180
T0
G92 E0.0000
G1 E-2.0000 F1800
; feature inner perimeter
; tool H0.180 W0.600
G1 Z0.180 F1000
G1 X94.319 Y113.721 F4800
G1 E0.0000 F1800
G92 E0.0000
G1 X95.107 Y113.721 E0.0354 F486
G1 X95.268 Y113.877 E0.0454
G1 X97.116 Y114.627 E0.1350
G1 X105.884 Y114.627 E0.5287
G1 X107.732 Y113.877 E0.6183
G1 X107.893 Y113.721 E0.6283
G1 X108.681 Y113.721 E0.6637
G1 X108.790 Y114.118 E0.6822
G1 X108.495 Y114.293 E0.6976
G1 X107.849 Y114.632 E0.7303
G1 X107.186 Y114.939 E0.7631
G1 X106.509 Y115.211 E0.7959
G1 X105.818 Y115.449 E0.8287
G1 X105.116 Y115.651 E0.8615
G1 X104.405 Y115.817 E0.8943
G1 X103.685 Y115.947 E0.9271
G1 X102.960 Y116.040 E0.9600
G1 X102.231 Y116.096 E0.9928
G1 X101.500 Y116.114 E1.0256
G1 X100.769 Y116.096 E1.0585
G1 X100.040 Y116.040 E1.0913
G1 X99.315 Y115.947 E1.1241
G1 X98.595 Y115.817 E1.1569
G1 X97.884 Y115.651 E1.1897
G1 X97.182 Y115.449 E1.2226
G1 X96.491 Y115.211 E1.2554
G1 X95.814 Y114.939 E1.2881
G1 X95.151 Y114.632 E1.3209
G1 X94.505 Y114.293 E1.3537
G1 X94.210 Y114.118 E1.3691
G1 X94.319 Y113.721 E1.3876
; feature outer perimeter
G1 X93.559 Y114.430 F4800
G92 E0.0000
G1 X92.926 Y114.010 E0.0341 F324
G1 X92.316 Y113.559 E0.0682
G1 X91.782 Y113.121 E0.0992
G1 X95.350 Y113.121 E0.2594
G1 X95.602 Y113.365 E0.2751
G1 X97.233 Y114.027 E0.3542
G1 X105.767 Y114.027 E0.7373
G1 X107.398 Y113.365 E0.8164
G1 X107.650 Y113.121 E0.8321
G1 X111.218 Y113.121 E0.9923
G1 X110.684 Y113.559 E1.0233
G1 X110.074 Y114.010 E1.0574
G1 X109.441 Y114.430 E1.0915
G1 X108.787 Y114.817 E1.1256
G1 X108.115 Y115.171 E1.1597
G1 X107.425 Y115.490 E1.1939
G1 X106.719 Y115.773 E1.2280
G1 X105.999 Y116.021 E1.2622
G1 X105.268 Y116.232 E1.2964
G1 X104.526 Y116.405 E1.3306
G1 X103.776 Y116.540 E1.3648
G1 X103.021 Y116.637 E1.3990
G1 X102.262 Y116.695 E1.4332
G1 X101.500 Y116.715 E1.4674
G1 X100.738 Y116.695 E1.5016
G1 X99.979 Y116.637 E1.5358
G1 X99.223 Y116.540 E1.5700
G1 X98.474 Y116.405 E1.6042
G1 X97.732 Y116.232 E1.6384
G1 X97.001 Y116.021 E1.6726
G1 X96.281 Y115.773 E1.7067
G1 X95.575 Y115.490 E1.7409
G1 X94.885 Y115.171 E1.7750
G1 X94.213 Y114.817 E1.8092
G1 X93.559 Y114.430 E1.8433
G1 X92.926 Y114.010 F324
G1 X92.316 Y113.559
G1 X91.782 Y113.121
G1 X94.574 Y113.121
; feature gap fill
; tool H0.180 W0.400
G1 X93.582 Y113.381 F4800
G92 E0.0000
G1 X94.017 Y113.816 E0.0184 F648
G1 X93.896 Y114.260 E0.0322
G1 X93.016 Y113.381 E0.0694
G1 X95.055 Y114.288 F4800
G92 E0.0000
G1 X94.747 Y113.981 E0.0130 F648
G1 X95.001 Y113.981 E0.0206
G1 X95.123 Y114.099 E0.0257
G1 X95.642 Y114.309 E0.0424
G1 X96.110 Y114.778 E0.0623
G1 X96.582 Y114.967 E0.0775
G1 X97.014 Y115.116 E0.0912
G1 X96.593 Y114.695 E0.1090
G1 X97.065 Y114.887 E0.1242
G1 X97.351 Y114.887 E0.1328
G1 X97.828 Y115.364 E0.1530
G1 X97.950 Y115.399 E0.1568
G1 X98.575 Y115.545 E0.1760
G1 X97.916 Y114.887 E0.2038
G1 X98.482 Y114.887 E0.2208
G1 X99.270 Y115.675 E0.2541
G1 X99.354 Y115.690 E0.2567
G1 X99.924 Y115.763 E0.2739
G1 X99.048 Y114.887 E0.3110
G1 X99.613 Y114.887 E0.3279
G1 X100.544 Y115.818 E0.3673
G1 X100.783 Y115.836 E0.3744
G1 X101.137 Y115.845 E0.3851
G1 X100.179 Y114.887 E0.4256
G1 X100.745 Y114.887 E0.4426
G1 X101.707 Y115.849 E0.4833
G1 X102.217 Y115.836 E0.4986
G1 X102.257 Y115.833 E0.4998
G1 X101.310 Y114.887 E0.5398
G1 X101.876 Y114.887 E0.5567
G1 X102.782 Y115.793 E0.5951
G1 X102.934 Y115.781 E0.5996
G1 X103.290 Y115.735 E0.6104
G1 X102.442 Y114.887 E0.6463
G1 X103.008 Y114.887 E0.6632
G1 X103.785 Y115.665 E0.6962
G1 X104.264 Y115.578 E0.7108
G1 X103.573 Y114.887 E0.7400
G1 X104.139 Y114.887 E0.7569
G1 X104.727 Y115.475 E0.7818
G1 X105.050 Y115.399 E0.7918
G1 X105.180 Y115.362 E0.7958
G1 X104.705 Y114.887 E0.8159
G1 X105.270 Y114.887 E0.8329
G1 X105.619 Y115.236 E0.8476
G1 X105.740 Y115.201 E0.8514
G1 X106.045 Y115.096 E0.8610
G1 X105.836 Y114.887 E0.8699
G1 X105.935 Y114.887 E0.8728
G1 X106.267 Y114.752 E0.8836
G1 X106.464 Y114.949 E0.8919
G1 X106.867 Y114.787 E0.9049
G1 X106.669 Y114.589 E0.9133
G1 X107.072 Y114.426 E0.9263
G1 X107.263 Y114.617 E0.9344
G1 X107.650 Y114.438 E0.9472
G1 X107.474 Y114.262 E0.9546
G1 X107.877 Y114.099 E0.9676
G1 X108.024 Y114.247 E0.9738
G1 X108.368 Y114.066 E0.9855
G1 X108.394 Y114.050 E0.9864
G1 X108.324 Y113.981 E0.9893
G1 X109.080 Y114.171 F4800
G92 E0.0000
G1 X109.187 Y114.278 E0.0045 F648
G1 X109.303 Y114.209 E0.0085
G1 X109.532 Y114.057 E0.0168
G1 X108.867 Y113.392 E0.0449
G1 X108.864 Y113.381 E0.0453
G1 X109.421 Y113.381 E0.0620
G1 X109.872 Y113.832 E0.0811
G1 X109.924 Y113.797 E0.0830
G1 X110.199 Y113.594 E0.0932
G1 X109.987 Y113.381 E0.1022
G92 E0.0000
G1 E-2.0000 F1800
; layer 2, Z = 0.330
M106 S255
; feature inner perimeter
; tool H0.150 W0.400
G1 Z0.330 F1000
G1 X109.537 Y113.251 F4800
G1 E0.0000 F1800
G92 E0.0000
G1 X108.899 Y113.675 E0.0191 F1312
G1 X108.693 Y113.419 E0.0273
G1 X112.917 Y109.321 E0.1741
G1 X113.165 Y109.527 E0.1821
G1 X113.022 Y109.746 E0.1887
G1 X112.604 Y110.317 E0.2063
G1 X112.158 Y110.868 E0.2240
G1 X111.684 Y111.396 E0.2417
G1 X111.184 Y111.900 E0.2594
G1 X110.658 Y112.378 E0.2771
G1 X110.109 Y112.828 E0.2949
G1 X109.537 Y113.251 E0.3126
G1 X105.180 Y114.969 F4800
G92 E0.0000
G1 X105.224 Y115.279 E0.0078 F1312
G1 X105.032 Y115.334 E0.0128
G1 X104.337 Y115.496 E0.0306
G1 X103.634 Y115.623 E0.0484
G1 X102.926 Y115.714 E0.0662
G1 X102.214 Y115.768 E0.0840
G1 X101.500 Y115.787 E0.1018
G1 X100.786 Y115.768 E0.1197
G1 X100.389 Y115.738 E0.1296
G1 X100.074 Y115.714 E0.1375
G1 X99.366 Y115.623 E0.1553
G1 X98.663 Y115.496 E0.1731
G1 X97.968 Y115.334 E0.1909
G1 X97.776 Y115.279 E0.1959
G1 X97.820 Y114.969 E0.2037
G1 X105.180 Y114.969 E0.3873
G1 X94.307 Y113.419 F4800
G92 E0.0000
G1 X94.101 Y113.675 E0.0082 F1312
G1 X93.463 Y113.251 E0.0273
G1 X92.891 Y112.828 E0.0450
G1 X92.342 Y112.378 E0.0628
G1 X91.816 Y111.900 E0.0805
G1 X91.316 Y111.396 E0.0982
G1 X90.842 Y110.868 E0.1159
G1 X90.396 Y110.317 E0.1336
G1 X89.978 Y109.746 E0.1512
G1 X89.835 Y109.527 E0.1578
G1 X90.083 Y109.321 E0.1658
G1 X94.307 Y113.419 E0.3126
G1 X93.843 Y113.984 F4800
G92 E0.0000
G1 X93.233 Y113.579 E0.0183 F1312
G1 X92.645 Y113.144 E0.0365
G1 X92.080 Y112.680 E0.0547
G1 X91.539 Y112.189 E0.0730
G1 X91.025 Y111.671 E0.0912
G1 X90.538 Y111.128 E0.1094
G1 X90.078 Y110.561 E0.1276
G1 X89.649 Y109.973 E0.1457
G1 X89.250 Y109.364 E0.1639
G1 X88.883 Y108.737 E0.1820
G1 X88.548 Y108.092 E0.2002
G1 X88.247 Y107.433 E0.2182
G1 X87.979 Y106.759 E0.2363
G1 X87.824 Y106.304 E0.2483
G1 X88.388 Y106.304 E0.2624
G1 X89.003 Y107.716 E0.3008
G1 X95.336 Y113.860 E0.5209
G1 X97.084 Y114.569 E0.5679
G1 X105.916 Y114.569 E0.7883
G1 X107.664 Y113.860 E0.8353
G1 X113.997 Y107.716 E1.0554
G1 X114.612 Y106.304 E1.0938
G1 X115.176 Y106.304 E1.1079
G1 X115.021 Y106.759 E1.1199
G1 X114.753 Y107.433 E1.1380
G1 X114.452 Y108.092 E1.1560
G1 X114.117 Y108.737 E1.1742
G1 X113.750 Y109.364 E1.1923
G1 X113.351 Y109.973 E1.2105
G1 X112.922 Y110.561 E1.2286
G1 X112.462 Y111.128 E1.2468
G1 X111.975 Y111.671 E1.2650
G1 X111.461 Y112.189 E1.2832
G1 X110.920 Y112.680 E1.3015
G1 X110.355 Y113.144 E1.3197
G1 X109.767 Y113.579 E1.3379
G1 X109.157 Y113.984 E1.3562
G1 X108.526 Y114.357 E1.3745
G1 X107.878 Y114.698 E1.3928
G1 X107.212 Y115.006 E1.4110
G1 X106.532 Y115.279 E1.4293
G1 X105.838 Y115.518 E1.4476
G1 X105.133 Y115.721 E1.4660
G1 X104.418 Y115.888 E1.4843
G1 X103.695 Y116.018 E1.5026
G1 X102.967 Y116.112 E1.5209
G1 X102.234 Y116.168 E1.5392
G1 X101.500 Y116.187 E1.5575
G1 X100.766 Y116.168 E1.5759
G1 X100.358 Y116.137 E1.5861
G1 X100.033 Y116.112 E1.5942
G1 X99.305 Y116.018 E1.6125
G1 X98.582 Y115.888 E1.6308
G1 X97.867 Y115.721 E1.6491
G1 X97.162 Y115.518 E1.6675
G1 X96.468 Y115.279 E1.6857
G1 X95.788 Y115.006 E1.7041
G1 X95.122 Y114.698 E1.7223
G1 X94.474 Y114.357 E1.7406
G1 X93.843 Y113.984 E1.7589
G1 X93.631 Y114.323 F4800
G92 E0.0000
G1 X93.004 Y113.907 E0.0188 F1312
G1 X92.399 Y113.460 E0.0375
G1 X91.818 Y112.983 E0.0563
G1 X91.263 Y112.478 E0.0750
G1 X90.734 Y111.945 E0.0937
G1 X90.233 Y111.388 E0.1124
G1 X89.761 Y110.805 E0.1311
G1 X89.320 Y110.201 E0.1498
G1 X88.910 Y109.575 E0.1684
G1 X88.533 Y108.930 E0.1871
G1 X88.189 Y108.268 E0.2057
G1 X87.879 Y107.590 E0.2243
G1 X87.603 Y106.897 E0.2429
G1 X87.363 Y106.193 E0.2615
G1 X87.281 Y105.904 E0.2689
G1 X88.651 Y105.904 E0.3031
G1 X89.338 Y107.484 E0.3461
G1 X95.559 Y113.519 E0.5623
G1 X97.162 Y114.169 E0.6054
G1 X105.838 Y114.169 E0.8218
G1 X107.441 Y113.519 E0.8650
G1 X113.662 Y107.484 E1.0812
G1 X114.349 Y105.904 E1.1242
G1 X115.719 Y105.904 E1.1583
G1 X115.637 Y106.193 E1.1658
G1 X115.397 Y106.897 E1.1844
G1 X115.121 Y107.590 E1.2030
G1 X114.811 Y108.268 E1.2215
G1 X114.467 Y108.930 E1.2402
G1 X114.090 Y109.575 E1.2588
G1 X113.680 Y110.201 E1.2775
G1 X113.239 Y110.805 E1.2961
G1 X112.767 Y111.388 E1.3148
G1 X112.266 Y111.945 E1.3335
G1 X111.737 Y112.478 E1.3523
G1 X111.182 Y112.983 E1.3710
G1 X110.601 Y113.460 E1.3897
G1 X109.996 Y113.907 E1.4085
G1 X109.369 Y114.323 E1.4273
G1 X108.722 Y114.706 E1.4460
G1 X108.055 Y115.057 E1.4648
G1 X107.371 Y115.373 E1.4836
G1 X106.671 Y115.654 E1.5024
G1 X105.959 Y115.900 E1.5212
G1 X105.234 Y116.108 E1.5401
G1 X104.499 Y116.280 E1.5589
G1 X103.756 Y116.414 E1.5777
G1 X103.007 Y116.510 E1.5965
G1 X102.255 Y116.568 E1.6154
G1 X101.500 Y116.587 E1.6342
G1 X100.745 Y116.568 E1.6530
G1 X100.328 Y116.536 E1.6635
G1 X99.993 Y116.510 E1.6719
G1 X99.244 Y116.414 E1.6907
G1 X98.501 Y116.280 E1.7095
G1 X97.766 Y116.108 E1.7283
G1 X97.041 Y115.900 E1.7472
G1 X96.329 Y115.654 E1.7660
G1 X95.629 Y115.373 E1.7848
G1 X94.945 Y115.057 E1.8036
G1 X94.278 Y114.706 E1.8224
G1 X93.631 Y114.323 E1.8411
; feature outer perimeter
G1 X93.418 Y114.662 F4800
G92 E0.0000
G1 X92.774 Y114.234 E0.0193 F875
G1 X92.153 Y113.775 E0.0385
G1 X91.557 Y113.286 E0.0578
G1 X90.986 Y112.767 E0.0770
G1 X90.443 Y112.220 E0.0962
G1 X89.928 Y111.647 E0.1155
G1 X89.444 Y111.049 E0.1347
G1 X88.991 Y110.428 E0.1538
G1 X88.570 Y109.786 E0.1730
