; G-Code generated by Simplify3D(R) Version 4.1.2
; Feb 14, 2026 at 10:15:25 AM
; Settings Summary
;   processName,Process4
;   applyToModels,M4_Wire_Clip
;   profileName,Robo3D R2 20 infill, double layers (modified)
;   profileVersion,2023-10-28 14:58:02
;   baseProfile,Robo3D R2 (modified)
;   printMaterial,PLA
;   printQuality,Medium
;   printExtruders,
;   extruderName,Primary Extruder
;   extruderToolheadNumber,0
;   extruderDiameter,0.4
;   extruderAutoWidth,0
;   extruderWidth,0.4
;   extrusionMultiplier,1
;   extruderUseRetract,1
;   extruderRetractionDistance,2
;   extruderExtraRestartDistance,0
;   extruderRetractionZLift,0
;   extruderRetractionSpeed,1800
;   extruderUseCoasting,0
;   extruderCoastingDistance,0.2
;   extruderUseWipe,1
;   extruderWipeDistance,5
;   primaryExtruder,0
;   layerHeight,0.15
;   topSolidLayers,6
;   bottomSolidLayers,6
;   perimeterOutlines,5
;   printPerimetersInsideOut,1
;   startPointOption,2
;   startPointOriginX,0
;   startPointOriginY,0
;   sequentialIslands,0
;   spiralVaseMode,0
;   firstLayerHeightPercentage,120
;   firstLayerWidthPercentage,150
;   firstLayerUnderspeed,0.4
;   useRaft,0
;   raftExtruder,0
;   raftTopLayers,3
;   raftBaseLayers,2
;   raftOffset,3
;   raftSeparationDistance,0.14
;   raftTopInfill,100
;   aboveRaftSpeedMultiplier,0.3
;   useSkirt,0
;   skirtExtruder,0
;   skirtLayers,1
;   skirtOutlines,2
;   skirtOffset,4
;   usePrimePillar,0
;   primePillarExtruder,999
;   primePillarWidth,12
;   primePillarLocation,7
;   primePillarSpeedMultiplier,1
;   useOozeShield,0
;   oozeShieldExtruder,999
;   oozeShieldOffset,2
;   oozeShieldOutlines,1
;   oozeShieldSidewallShape,1
;   oozeShieldSidewallAngle,30
;   oozeShieldSpeedMultiplier,1
;   infillExtruder,0
;   internalInfillPattern,Rectilinear
;   externalInfillPattern,Rectilinear
;   infillPercentage,50
;   outlineOverlapPercentage,40
;   infillExtrusionWidthPercentage,130
;   minInfillLength,5
;   infillLayerInterval,1
;   internalInfillAngles,45,-45
;   overlapInternalInfillAngles,0
;   externalInfillAngles,45,-45
;   generateSupport,0
;   supportExtruder,0
;   supportInfillPercentage,30
;   supportExtraInflation,0
;   supportBaseLayers,0
;   denseSupportExtruder,0
;   denseSupportLayers,0
;   denseSupportInfillPercentage,70
;   supportLayerInterval,1
;   supportHorizontalPartOffset,0.3
;   supportUpperSeparationLayers,1
;   supportLowerSeparationLayers,1
;   supportType,0
;   supportGridSpacing,4
;   maxOverhangAngle,45
;   supportAngles,0
;   temperatureName,Primary Extruder,Heated Bed
;   temperatureNumber,0,0
;   temperatureSetpointCount,1,1
;   temperatureSetpointLayers,1,1
;   temperatureSetpointTemperatures,190,70
;   temperatureStabilizeAtStartup,1,1
;   temperatureHeatedBed,0,1
;   fanLayers,1,2
;   fanSpeeds,0,100
;   blipFanToFullPower,1
;   adjustSpeedForCooling,1
;   minSpeedLayerTime,15
;   minCoolingSpeedSlowdown,20
;   increaseFanForCooling,0
;   minFanLayerTime,45
;   maxCoolingFanSpeed,100
;   increaseFanForBridging,0
;   bridgingFanSpeed,100
;   use5D,1
;   relativeEdistances,0
;   allowEaxisZeroing,1
;   independentExtruderAxes,0
;   includeM10123,0
;   stickySupport,1
;   applyToolheadOffsets,0
;   gcodeXoffset,0
;   gcodeYoffset,0
;   gcodeZoffset,0
;   overrideMachineDefinition,1
;   machineTypeOverride,0
;   strokeXoverride,203
;   strokeYoverride,203
;   strokeZoverride,254
;   originOffsetXoverride,0
;   originOffsetYoverride,0
;   originOffsetZoverride,0
;   homeXdirOverride,-1
;   homeYdirOverride,-1
;   homeZdirOverride,-1
;   flipXoverride,1
;   flipYoverride,-1
;   flipZoverride,1
;   toolheadOffsets,0,0|0,0|0,0|0,0|0,0|0,0
;   overrideFirmwareConfiguration,1
;   firmwareTypeOverride,RepRap (Marlin/Repetier/Sprinter)
;   GPXconfigOverride,r2
;   baudRateOverride,250000
;   overridePrinterModels,1
;   printerModelsOverride
;   startingGcode,G28 ; home all axes,G1 Z5 F1000 ; lower bed by 5mm,G29 ; run auto bed leveling routine,G1 X1 Y1 F7200 ; move to starting position,G1 Z0.3 F1000 ; set priming height,G92 E0 ; reset extrusion distance,G1 X100 E10.0 F500 ; prime extruder,G1 X120 F6000 ; quick wipe,G92 E0 ; reset extrusion distance
;   layerChangeGcode,
;   retractionGcode,
;   toolChangeGcode,
;   endingGcode,G28 X0 Y0 ; home x and y axes,M106 S0 ; turn off cooling fan,M104 S0 ; turn off extruder,M140 S0 ; turn off bed,M84 ; disable motors
;   exportFileFormat,gcode
;   celebration,0
;   celebrationSong,Random Song
;   postProcessing,
;   defaultSpeed,3000
;   outlineUnderspeed,0.5
;   solidInfillUnderspeed,0.6
;   supportUnderspeed,0.8
;   rapidXYspeed,4800
;   rapidZspeed,1000
;   minBridgingArea,50
;   bridgingExtraInflation,0
;   bridgingExtrusionMultiplier,1
;   bridgingSpeedMultiplier,1
;   useFixedBridgingAngle,0
;   fixedBridgingAngle,0
;   applyBridgingToPerimeters,0
;   filamentDiameters,1.75|1.75|1.75|1.75|1.75|1.75
;   filamentPricesPerKg,46|46|46|46|46|46
;   filamentDensities,1.25|1.25|1.25|1.25|1.25|1.25
;   useMinPrintHeight,0
;   minPrintHeight,0
;   useMaxPrintHeight,0
;   maxPrintHeight,0
;   useDiaphragm,0
;   diaphragmLayerInterval,20
;   robustSlicing,1
;   mergeAllIntoSolid,0
;   onlyRetractWhenCrossingOutline,1
;   retractBetweenLayers,1
;   useRetractionMinTravel,0
;   retractionMinTravel,3
;   retractWhileWiping,0
;   onlyWipeOutlines,1
;   avoidCrossingOutline,0
;   maxMovementDetourFactor,3
;   toolChangeRetractionDistance,12
;   toolChangeExtraRestartDistance,-0.5
;   toolChangeRetractionSpeed,600
;   externalThinWallType,0
;   internalThinWallType,2
;   thinWallAllowedOverlapPercentage,10
;   singleExtrusionMinLength,1
;   singleExtrusionMinPrintingWidthPercentage,50
;   singleExtrusionMaxPrintingWidthPercentage,200
;   singleExtrusionEndpointExtension,0.2
;   horizontalSizeCompensation,0
G90
M82
M106 S0
M140 S70
M190 S70
M104 S190 T0
M109 S190 T0
G28 ; home all axes
G1 Z5 F1000 ; lower bed by 5mm
G29 ; run auto bed leveling routine
G1 X1 Y1 F7200 ; move to starting position
G1 Z0.3 F1000 ; set priming height
G92 E0 ; reset extrusion distance
G1 X100 E10.0 F500 ; prime extruder
G1 X120 F6000 ; quick wipe
G92 E0 ; reset extrusion distance
; process Process4
; layer 1, Z = 0.180
T0
G92 E0.0000
G1 E-2.0000 F1800
; feature inner perimeter
; tool H0.180 W0.600
G1 Z0.180 F1000
G1 X97.020 Y101.322 F4800
G1 E0.0000 F1800
G92 E0.0000
G1 X97.415 Y101.202 E0.0186 F554
G1 X97.943 Y102.048 E0.0633
G1 X98.325 Y102.487 E0.0895
G1 X98.031 Y102.795 E0.1086
G1 X97.780 Y103.102 E0.1264
G1 X97.265 Y103.851 E0.1672
G1 X97.128 Y102.991 E0.2063
G1 X97.078 Y102.537 E0.2268
G1 X97.042 Y102.075 E0.2476
G1 X97.020 Y101.322 E0.2814
G92 E0.0000
G1 E-2.0000 F1800
G1 X104.671 Y102.491 F4800
G1 E0.0000 F1800
G92 E0.0000
G1 X105.081 Y102.021 E0.0280 F554
G1 X105.586 Y101.212 E0.0708
G1 X105.983 Y101.333 E0.0894
G1 X105.952 Y102.162 E0.1266
G1 X105.859 Y103.089 E0.1685
G1 X105.733 Y103.854 E0.2033
G1 X105.243 Y103.130 E0.2426
G1 X104.972 Y102.796 E0.2619
G1 X104.671 Y102.491 E0.2811
; feature outer perimeter
G1 X104.237 Y102.904 F4800
G92 E0.0000
G1 X104.060 Y102.755 E0.0104 F369
G1 X104.048 Y102.695 E0.0131
G1 X103.997 Y102.656 E0.0160
G1 X103.987 Y102.612 E0.0181
G1 X103.883 Y102.523 E0.0242
G1 X103.886 Y102.389 E0.0302
G1 X104.314 Y101.987 E0.0566
G1 X104.597 Y101.663 E0.0759
G1 X105.090 Y100.874 E0.1177
G1 X105.398 Y100.033 E0.1579
G1 X105.562 Y99.241 E0.1942
G1 X105.592 Y98.345 E0.2345
G1 X105.478 Y97.443 E0.2753
G1 X105.325 Y96.882 E0.3014
G1 X105.103 Y96.285 E0.3300
G1 X104.977 Y96.026 E0.3429
G1 X104.579 Y95.451 E0.3743
G1 X104.259 Y95.063 E0.3969
G1 X103.857 Y94.673 E0.4221
G1 X103.834 Y94.656 E0.4233
G1 X104.094 Y94.120 E0.4501
G1 X104.206 Y94.198 E0.4563
G1 X104.648 Y94.619 E0.4837
G1 X105.015 Y95.053 E0.5092
G1 X105.468 Y95.699 E0.5446
G1 X105.629 Y96.020 E0.5607
G1 X105.876 Y96.670 E0.5920
G1 X106.044 Y97.276 E0.6202
G1 X106.100 Y97.696 E0.6392
G1 X106.295 Y98.481 E0.6756
G1 X106.443 Y99.293 E0.7126
G1 X106.537 Y100.106 E0.7494
G1 X106.565 Y100.506 E0.7674
G1 X106.584 Y101.312 E0.8035
G1 X106.551 Y102.203 E0.8436
G1 X106.454 Y103.168 E0.8872
G1 X106.300 Y104.100 E0.9296
G1 X106.213 Y104.507 E0.9482
G1 X106.043 Y105.163 E0.9787
G1 X105.798 Y105.897 E1.0134
G1 X105.504 Y106.572 E1.0465
G1 X105.342 Y106.875 E1.0619
G1 X105.165 Y107.165 E1.0772
G1 X104.974 Y107.437 E1.0921
G1 X104.770 Y107.691 E1.1067
G1 X104.551 Y107.927 E1.1212
G1 X104.360 Y108.107 E1.1329
G1 X104.112 Y108.310 E1.1474
G1 X103.849 Y108.493 E1.1617
G1 X103.465 Y108.711 E1.1815
G1 X103.045 Y108.895 E1.2022
G1 X102.582 Y109.044 E1.2240
G1 X102.074 Y109.157 E1.2474
G1 X101.496 Y109.230 E1.2735
G1 X101.061 Y109.179 E1.2932
G1 X100.667 Y109.106 E1.3112
G1 X100.240 Y108.993 E1.3310
G1 X99.793 Y108.830 E1.3524
G1 X99.387 Y108.633 E1.3726
G1 X99.018 Y108.404 E1.3921
G1 X98.682 Y108.143 E1.4112
G1 X98.374 Y107.850 E1.4303
G1 X98.093 Y107.524 E1.4497
G1 X97.836 Y107.165 E1.4695
G1 X97.603 Y106.775 E1.4899
G1 X97.341 Y106.239 E1.5166
G1 X97.158 Y105.780 E1.5388
G1 X96.995 Y105.291 E1.5620
G1 X96.852 Y104.778 E1.5859
G1 X96.682 Y104.008 E1.6213
G1 X96.533 Y103.071 E1.6639
G1 X96.480 Y102.593 E1.6855
G1 X96.443 Y102.107 E1.7074
G1 X96.416 Y101.212 E1.7476
G1 X96.441 Y100.405 E1.7838
G1 X96.472 Y100.005 E1.8019
G1 X96.573 Y99.189 E1.8388
G1 X96.643 Y98.786 E1.8571
G1 X96.727 Y98.383 E1.8756
G1 X96.899 Y97.712 E1.9067
G1 X96.948 Y97.306 E1.9251
G1 X97.104 Y96.733 E1.9518
G1 X97.354 Y96.053 E1.9843
G1 X97.512 Y95.728 E2.0005
G1 X97.950 Y95.095 E2.0351
G1 X98.307 Y94.662 E2.0603
G1 X98.761 Y94.221 E2.0887
G1 X98.898 Y94.125 E2.0962
G1 X99.081 Y94.488 E2.1145
G1 X98.989 Y94.553 E2.1195
G1 X99.045 Y94.775 E2.1298
G1 X98.774 Y95.031 E2.1466
G1 X98.447 Y95.419 E2.1694
G1 X98.055 Y95.979 E2.2001
G1 X97.878 Y96.336 E2.2179
G1 X97.693 Y96.833 E2.2418
G1 X97.534 Y97.398 E2.2681
G1 X97.410 Y98.327 E2.3102
G1 X97.437 Y99.209 E2.3498
G1 X97.537 Y99.648 E2.3700
G1 X97.596 Y100.003 E2.3862
G1 X97.898 Y100.843 E2.4263
G1 X98.426 Y101.689 E2.4711
G1 X98.666 Y101.964 E2.4874
G1 X99.073 Y102.350 E2.5126
G1 X99.073 Y102.539 E2.5211
G1 X98.958 Y102.633 E2.5278
G1 X98.938 Y102.711 E2.5314
G1 X98.880 Y102.758 E2.5348
G1 X98.868 Y102.818 E2.5375
G1 X98.676 Y102.988 E2.5490
G1 X98.482 Y103.193 E2.5617
G1 X98.260 Y103.463 E2.5774
G1 X98.087 Y103.715 E2.5911
G1 X97.911 Y104.019 E2.6069
G1 X97.734 Y104.410 E2.6261
G1 X97.628 Y104.716 E2.6407
G1 X97.507 Y105.200 E2.6631
G1 X97.659 Y105.652 E2.6845
G1 X97.888 Y106.218 E2.7119
G1 X98.022 Y106.497 E2.7258
G1 X98.205 Y106.819 E2.7424
G1 X98.450 Y107.173 E2.7618
G1 X98.616 Y107.375 E2.7735
G1 X98.841 Y107.619 E2.7884
G1 X99.054 Y107.815 E2.8014
G1 X99.336 Y108.026 E2.8172
G1 X99.624 Y108.202 E2.8324
G1 X99.942 Y108.359 E2.8483
G1 X100.304 Y108.499 E2.8657
G1 X100.644 Y108.597 E2.8816
G1 X101.110 Y108.691 E2.9029
G1 X101.484 Y108.739 E2.9199
G1 X101.736 Y108.713 E2.9313
G1 X102.350 Y108.600 E2.9593
G1 X102.681 Y108.505 E2.9748
G1 X103.033 Y108.372 E2.9917
G1 X103.310 Y108.240 E3.0054
G1 X103.611 Y108.064 E3.0211
G1 X103.872 Y107.878 E3.0355
G1 X104.096 Y107.686 E3.0487
G1 X104.311 Y107.468 E3.0625
G1 X104.540 Y107.197 E3.0784
G1 X104.885 Y106.685 E3.1061
G1 X105.187 Y106.090 E3.1361
G1 X105.496 Y105.211 E3.1779
G1 X105.398 Y104.801 E3.1969
G1 X105.277 Y104.433 E3.2143
G1 X105.131 Y104.100 E3.2306
G1 X104.932 Y103.743 E3.2489
G1 X104.760 Y103.488 E3.2627
G1 X104.524 Y103.196 E3.2796
G1 X104.237 Y102.904 E3.2980
G1 X104.060 Y102.755 F369
G1 X104.048 Y102.695
G1 X103.997 Y102.656
G1 X103.987 Y102.612
G1 X103.883 Y102.523
G1 X103.886 Y102.389
G1 X104.314 Y101.987
G1 X104.597 Y101.663
G1 X105.090 Y100.874
G1 X105.398 Y100.033
G1 X105.562 Y99.241
G1 X105.585 Y98.567
; feature gap fill
; tool H0.180 W0.400
G1 X105.795 Y97.875 F4800
G92 E0.0000
G1 X105.904 Y97.984 E0.0046 F738
G1 X106.041 Y98.536 E0.0216
G1 X106.074 Y98.720 E0.0273
G1 X105.847 Y98.493 E0.0369
G1 X105.829 Y99.041 E0.0533
G1 X106.195 Y99.406 E0.0687
G1 X106.269 Y100.046 E0.0880
G1 X105.765 Y99.543 E0.1093
G1 X105.668 Y100.011 E0.1236
G1 X106.308 Y100.651 E0.1507
G1 X106.320 Y101.159 E0.1659
G1 X106.219 Y101.128 E0.1691
G1 X105.527 Y100.436 E0.1984
G1 X105.376 Y100.850 E0.2116
G1 X105.451 Y100.926 E0.2148
G1 X105.615 Y101.656 F4800
G92 E0.0000
G1 X105.707 Y101.748 E0.0039 F738
G1 X105.693 Y102.144 E0.0158
G1 X105.679 Y102.285 E0.0200
G1 X105.398 Y102.004 E0.0319
G1 X105.290 Y102.176 E0.0380
G1 X105.157 Y102.329 E0.0440
G1 X105.627 Y102.799 E0.0639
G1 X104.465 Y102.202 F4800
G92 E0.0000
G1 X104.521 Y102.258 E0.0024 F738
G1 X104.309 Y102.501 E0.0120
G1 X104.448 Y102.642 E0.0179
G1 X104.393 Y102.696 E0.0203
G1 X104.292 Y102.595 E0.0246
G1 X105.544 Y104.412 F4800
G92 E0.0000
G1 X105.882 Y104.750 E0.0143 F738
G92 E0.0000
G1 E-2.0000 F1800
G1 X98.645 Y102.605 F4800
G1 E0.0000 F1800
G92 E0.0000
G1 X98.612 Y102.571 E0.0014 F738
G1 X97.457 Y103.114 F4800
G92 E0.0000
G1 X97.402 Y103.059 E0.0023 F738
G1 X97.386 Y102.956 E0.0054
G1 X97.337 Y102.513 E0.0188
G1 X97.330 Y102.421 E0.0216
G1 X97.699 Y102.791 E0.0372
G1 X97.836 Y102.623 E0.0437
G1 X97.964 Y102.489 E0.0492
G1 X97.294 Y101.820 E0.0775
G1 X97.604 Y100.998 F4800
G92 E0.0000
G1 X97.598 Y100.992 E0.0003 F738
G1 X96.694 Y100.653 F4800
G92 E0.0000
G1 X97.069 Y101.029 E0.0159 F738
G1 X97.503 Y100.898 E0.0295
G1 X96.724 Y100.118 E0.0625
G1 X96.730 Y100.031 E0.0651
G1 X96.782 Y99.611 E0.0778
G1 X97.401 Y100.229 E0.1039
G1 X97.343 Y100.069 E0.1091
G1 X97.282 Y99.699 E0.1203
G1 X97.236 Y99.499 E0.1264
G1 X96.850 Y99.113 E0.1428
G1 X96.898 Y98.835 E0.1512
G1 X96.940 Y98.637 E0.1573
G1 X97.166 Y98.863 E0.1668
G1 X97.149 Y98.314 E0.1833
G1 X97.153 Y98.285 E0.1842
G1 X97.048 Y98.179 E0.1886
G1 X97.604 Y103.827 F4800
G92 E0.0000
G1 X97.679 Y103.902 E0.0032 F738
G1 X97.503 Y104.291 E0.0160
G1 X97.374 Y104.162 E0.0214
G1 X97.143 Y104.497 E0.0336
G1 X97.360 Y104.714 E0.0428
G92 E0.0000
G1 E-2.0000 F1800
; layer 2, Z = 0.330
M106 S255
; feature inner perimeter
; tool H0.150 W0.400
G1 Z0.330 F1000
G1 X97.280 Y103.834 F4800
G1 E0.0000 F1800
G92 E0.0000
G1 X97.145 Y102.988 E0.0214 F767
G1 X97.095 Y102.535 E0.0327
G1 X97.059 Y102.075 E0.0443
G1 X97.031 Y101.097 E0.0686
G1 X97.304 Y101.023 E0.0757
G1 X97.517 Y101.411 E0.0868
G1 X97.979 Y102.116 E0.1078
G1 X98.180 Y102.347 E0.1154
G1 X98.322 Y102.484 E0.1203
G1 X98.029 Y102.781 E0.1308
G1 X97.734 Y103.147 E0.1425
G1 X97.280 Y103.834 E0.1630
G92 E0.0000
G1 E-2.0000 F1800
G1 X104.691 Y102.494 F4800
G1 E0.0000 F1800
G92 E0.0000
G1 X105.095 Y102.031 E0.0153 F767
G1 X105.703 Y101.057 E0.0440
G1 X105.962 Y101.128 E0.0506
G1 X105.966 Y101.308 E0.0551
G1 X105.935 Y102.161 E0.0764
G1 X105.842 Y103.087 E0.0996
G1 X105.720 Y103.823 E0.1182
G1 X105.229 Y103.091 E0.1402
G1 X104.911 Y102.710 E0.1526
G1 X104.691 Y102.494 E0.1603
G1 X104.353 Y102.723 F4800
G92 E0.0000
G1 X104.211 Y102.606 E0.0046 F767
G1 X104.173 Y102.418 E0.0094
G1 X104.471 Y102.138 E0.0196
G1 X104.773 Y101.792 E0.0310
G1 X105.286 Y100.970 E0.0552
G1 X105.608 Y100.094 E0.0785
G1 X105.779 Y99.266 E0.0996
G1 X105.796 Y98.751 E0.1124
G1 X106.119 Y98.727 E0.1205
G1 X106.228 Y99.325 E0.1357
G1 X106.321 Y100.127 E0.1558
G1 X106.347 Y100.515 E0.1655
G1 X106.366 Y101.310 E0.1853
G1 X106.334 Y102.188 E0.2072
G1 X106.239 Y103.140 E0.2311
G1 X106.086 Y104.060 E0.2544
G1 X106.001 Y104.457 E0.2645
G1 X105.903 Y104.838 E0.2743
G1 X105.624 Y104.837 E0.2813
G1 X105.575 Y104.649 E0.2861
G1 X105.465 Y104.331 E0.2945
G1 X105.327 Y104.016 E0.3031
G1 X105.152 Y103.694 E0.3122
G1 X104.909 Y103.331 E0.3231
G1 X104.616 Y102.982 E0.3345
G1 X104.353 Y102.723 E0.3437
G92 E0.0000
G1 E-2.0000 F1800
G1 X98.781 Y102.454 F4800
G1 E0.0000 F1800
G92 E0.0000
G1 X98.757 Y102.517 E0.0017 F767
G1 X98.729 Y102.659 E0.0053
G1 X98.626 Y102.745 E0.0086
G1 X98.328 Y103.047 E0.0192
G1 X98.057 Y103.383 E0.0300
G1 X97.853 Y103.692 E0.0392
G1 X97.698 Y103.973 E0.0473
G1 X97.549 Y104.305 E0.0563
G1 X97.435 Y104.625 E0.0648
G1 X97.375 Y104.856 E0.0708
G1 X97.091 Y104.851 E0.0778
G1 X96.896 Y103.967 E0.1004
G1 X96.749 Y103.041 E0.1238
G1 X96.697 Y102.572 E0.1356
G1 X96.660 Y102.096 E0.1475
G1 X96.634 Y101.212 E0.1695
